!! 00000] TT[WS
!!!OTL: Panerlang
!!!ARE: Asia, China, Shanxi Yingxian
!! Ethnic Group: Han
!! WII, 183
!!!SCT: J0685
!!!YEM: Copyright 1995, estate of Helmut Schaffrath.
**kern
*ICvox
*Ivox
*M2/4
*k[f#c#g#]
*A:
{4cc#
8cc#
16b
16f#
=1
8a
8a
4r
=2
8f#
8a
8f#
8e
=3
8c#
8c#
4r}
=4
{8f#
4a
8b
=5
8cc#
8ee
8cc#
8b
=6
8.cc#
16b
8b
8f#
=7
2a}
=8
{8f#
8a
8e
8g#
=9
2f#
=10
8f#
8a
8c#
8e
=11
2f#}
=12
{8f#
8a
8e
8g#
=13
2f#
=14
8f#
8a
8c#
8e
=15
2f#}
=16
{4b
8ee
8cc#
=17
8.b
16cc#
8b
8a
=18
4e
4a
=19
8.b
16a
8g#
8f#
=20
2e}
=21
{8.a
16f#
8.a
16f#
=22
2a
=23
4b
8ee
8cc#
=24
4e
4a
=25
8.b
16a
8g#
8f#
=26
2e}
==
!!!AGN: Xiaodiao
!!!ONB: ESAC (Essen Associative Code) Database: CHINA
!!!AMT: simple duple
!!!AIN: vox
!!!EED: Helmut Schaffrath
!!!EEV: 1.0
*-
